apps/16/view-statistics.svg

<?xml version="1.0" encoding="UTF-8"?>
<svg id="d" width="16" height="16" version="1.1" xmlns="http://www.w3.org/2000/svg" xmlns:cc="http://creativecommons.org/ns#" xmlns:dc="http://purl.org/dc/elements/1.1/" xmlns:rdf="http://www.w3.org/1999/02/22-rdf-syntax-ns#">
	<metadata id="a">
		<rdf:RDF>
			<cc:Work rdf:about="">
				<dc:format>image/svg+xml</dc:format>
				<dc:type rdf:resource="http://purl.org/dc/dcmitype/StillImage"/>
				<dc:title/>
			</cc:Work>
		</rdf:RDF>
	</metadata>
	<defs>
		<style id="current-color-scheme" type="text/css">.ColorScheme-Text {color:#090d11;}.ColorScheme-Background{color:#ffffff;}</style>
	</defs>
	<path id="c" d="m1 2v1h1v-1zm7 0v10h2v-10zm-7 3v1h1v-1zm11 0v7h2v-7zm-11 3v1h1v-1zm3-1v5h2v-5zm-3 4v1h1v-1zm0 3v1h1v-1zm3 0v1h1v-1zm3 0v1h1v-1zm3 0v1h1v-1zm3 0v1h1v-1z" style="fill-opacity:.75;fill:currentColor" class="ColorScheme-Text"/>
	<path id="b" d="m0 0v1h1v-1zm0 3v1h1v-1zm6 0v11h2v-11zm-6 3v1h1v-1zm10 0v8h2v-8zm-8 2v6h2v-6zm-2 1v1h1v-1zm14 1v4h2v-4zm-14 2v1h1v-1zm0 3v1h1v-1zm3 0v1h1v-1zm3 0v1h1v-1zm3 0v1h1v-1zm3 0v1h1v-1zm3 0v1h1v-1z" style="fill-opacity:.5;fill:currentColor" class="ColorScheme-Background"/>
</svg>

<?xml version="1.0" encoding="UTF-8" standalone="no"?>
<!-- Created with Inkscape (http://www.inkscape.org/) -->

<svg
   xmlns:dc="http://purl.org/dc/elements/1.1/"
   xmlns:cc="http://creativecommons.org/ns#"
   xmlns:rdf="http://www.w3.org/1999/02/22-rdf-syntax-ns#"
   xmlns:svg="http://www.w3.org/2000/svg"
   xmlns="http://www.w3.org/2000/svg"
   xmlns:sodipodi="http://sodipodi.sourceforge.net/DTD/sodipodi-0.dtd"
   xmlns:inkscape="http://www.inkscape.org/namespaces/inkscape"
   width="16"
   height="16"
   id="svg27665"
   version="1.1"
   inkscape:version="0.48.4 r9939"
   sodipodi:docname="view-statistics.svg">
  <defs
     id="defs27667" />
  <sodipodi:namedview
     id="base"
     pagecolor="#ffffff"
     bordercolor="#666666"
     borderopacity="1.0"
     inkscape:pageopacity="0.0"
     inkscape:pageshadow="2"
     inkscape:zoom="44.8"
     inkscape:cx="9.367845"
     inkscape:cy="7.9528826"
     inkscape:document-units="px"
     inkscape:current-layer="layer1"
     showgrid="true"
     inkscape:window-width="1920"
     inkscape:window-height="1017"
     inkscape:window-x="-5"
     inkscape:window-y="26"
     inkscape:window-maximized="1"
     inkscape:snap-bbox="true"
     inkscape:bbox-paths="true"
     inkscape:bbox-nodes="true"
     inkscape:snap-bbox-edge-midpoints="true"
     inkscape:snap-bbox-midpoints="true"
     inkscape:object-paths="true"
     inkscape:snap-intersection-paths="true"
     inkscape:object-nodes="true"
     inkscape:snap-smooth-nodes="true"
     inkscape:snap-midpoints="true"
     inkscape:snap-object-midpoints="true"
     inkscape:snap-center="true"
     inkscape:snap-global="true"
     showguides="true"
     inkscape:guide-bbox="true"
     fit-margin-top="0"
     fit-margin-left="0"
     fit-margin-right="0"
     fit-margin-bottom="0"
     inkscape:showpageshadow="false"
     inkscape:snap-page="true">
    <inkscape:grid
       type="xygrid"
       id="grid3126"
       empspacing="5"
       visible="true"
       enabled="true"
       snapvisiblegridlinesonly="true"
       originx="1.9507231e-05px"
       originy="25.00001px" />
  </sodipodi:namedview>
  <metadata
     id="metadata27670">
    <rdf:RDF>
      <cc:Work
         rdf:about="">
        <dc:format>image/svg+xml</dc:format>
        <dc:type
           rdf:resource="http://purl.org/dc/dcmitype/StillImage" />
        <dc:title />
      </cc:Work>
    </rdf:RDF>
  </metadata>
  <g
     inkscape:label="Camada 1"
     inkscape:groupmode="layer"
     id="layer1"
     transform="translate(3364.4172,-1859.5163)">
    <path
       style="color:#000000;fill:#27303a;fill-opacity:0.753280819999999968;fill-rule:nonzero;stroke:none;stroke-width:1.41430247;marker:none;visibility:visible;display:inline;overflow:visible;enable-background:accumulate"
       d="M 1,2 1,3 2,3 2,2 z m 7,0 0,10 2,0 0,-10 z M 1,5 1,6 2,6 2,5 z m 11,0 0,7 2,0 0,-7 z M 1,8 1,9 2,9 2,8 z m 3,-1 0,5 2,0 0,-5 z m -3,4 0,1 1,0 0,-1 z m 0,3 0,1 1,0 0,-1 z m 3,0 0,1 1,0 0,-1 z m 3,0 0,1 1,0 0,-1 z m 3,0 0,1 1,0 0,-1 z m 3,0 0,1 1,0 0,-1 z"
       transform="translate(-3364.4172,1859.5163)"
       id="path3014"
       inkscape:connector-curvature="0"
       sodipodi:nodetypes="cccccccccccccccccccccccccccccccccccccccccccccccccccccccccccc" />
    <path
       style="color:#000000;fill:#f1f3f5;fill-opacity:0.90288714000000003;fill-rule:nonzero;stroke:none;stroke-width:0.07212035999999999;marker:none;visibility:visible;display:inline;overflow:visible;enable-background:accumulate"
       d="M 0 0 L 0 1 L 1 1 L 1 0 L 0 0 z M 0 3 L 0 4 L 1 4 L 1 3 L 0 3 z M 6 3 L 6 14 L 8 14 L 8 3 L 6 3 z M 0 6 L 0 7 L 1 7 L 1 6 L 0 6 z M 10 6 L 10 14 L 12 14 L 12 6 L 10 6 z M 2 8 L 2 14 L 4 14 L 4 8 L 2 8 z M 0 9 L 0 10 L 1 10 L 1 9 L 0 9 z M 14 10 L 14 14 L 16 14 L 16 10 L 14 10 z M 0 12 L 0 13 L 1 13 L 1 12 L 0 12 z M 0 15 L 0 16 L 1 16 L 1 15 L 0 15 z M 3 15 L 3 16 L 4 16 L 4 15 L 3 15 z M 6 15 L 6 16 L 7 16 L 7 15 L 6 15 z M 9 15 L 9 16 L 10 16 L 10 15 L 9 15 z M 12 15 L 12 16 L 13 16 L 13 15 L 12 15 z M 15 15 L 15 16 L 16 16 L 16 15 L 15 15 z "
       transform="translate(-3364.4172,1859.5163)"
       id="rect2991" />
  </g>
</svg>
